www/assets/images/linkedin.svg

<svg fill="none" height="24" viewBox="0 0 24 24" width="24" xmlns="http://www.w3.org/2000/svg"><path d="m20.4701 2.00014h-16.94004c-.19042-.00264-.3795.03225-.55644.10268-.17693.07044-.33826.17504-.47476.30783-.13651.13279-.24552.29117-.32081.4661-.07529.17492-.11538.36297-.11799.55339v17.13996c.00261.1905.0427.3785.11799.5534.07529.175.1843.3333.32081.4661.1365.1328.29783.2374.47476.3079.17694.0704.36602.1053.55644.1026h16.94004c.1904.0027.3795-.0322.5564-.1026.1769-.0705.3383-.1751.4748-.3079s.2455-.2911.3208-.4661c.0753-.1749.1154-.3629.118-.5534v-17.13996c-.0026-.19042-.0427-.37847-.118-.55339-.0753-.17493-.1843-.33331-.3208-.4661s-.2979-.23739-.4748-.30783c-.1769-.07043-.366-.10532-.5564-.10268zm-12.38004 16.73996h-3v-8.99996h3zm-1.5-10.25996c-.41374 0-.81053-.16436-1.10309-.45691-.29255-.29256-.45691-.68935-.45691-1.10309s.16436-.81053.45691-1.10309c.29256-.29255.68935-.45691 1.10309-.45691.21969-.02492.44218-.00315.65287.06388.2107.06703.40487.17781.56979.32508.16491.14727.29686.32772.38721.52952.09035.20181.13705.42042.13705.64152s-.0467.43971-.13705.64152c-.09035.2018-.2223.38225-.38721.52952-.16492.14727-.35909.25805-.56979.32508-.21069.06703-.43318.08879-.65287.06388zm12.32004 10.25996h-3v-4.83c0-1.21-.43-2-1.52-2-.3374.0025-.6659.1083-.9412.3032-.2754.1949-.4844.4695-.5988.7868-.0783.2351-.1122.4826-.1.73v5h-3.00004s0-8.18 0-8.99996h3.00004v1.26996c.2725-.4729.6689-.8624 1.1464-1.12676.4775-.26432 1.0181-.39335 1.5636-.3732 2 0 3.45 1.28996 3.45 4.05996z" fill="#000"/></svg>

<svg width="24" height="24" viewBox="0 0 24 24" fill="none" xmlns="http://www.w3.org/2000/svg">
<path d="M20.4701 2.00014H3.53006C3.33964 1.9975 3.15056 2.03239 2.97362 2.10282C2.79669 2.17326 2.63536 2.27786 2.49886 2.41065C2.36235 2.54344 2.25334 2.70182 2.17805 2.87675C2.10276 3.05167 2.06267 3.23972 2.06006 3.43014V20.5701C2.06267 20.7606 2.10276 20.9486 2.17805 21.1235C2.25334 21.2985 2.36235 21.4568 2.49886 21.5896C2.63536 21.7224 2.79669 21.827 2.97362 21.8975C3.15056 21.9679 3.33964 22.0028 3.53006 22.0001H20.4701C20.6605 22.0028 20.8496 21.9679 21.0265 21.8975C21.2034 21.827 21.3648 21.7224 21.5013 21.5896C21.6378 21.4568 21.7468 21.2985 21.8221 21.1235C21.8974 20.9486 21.9375 20.7606 21.9401 20.5701V3.43014C21.9375 3.23972 21.8974 3.05167 21.8221 2.87675C21.7468 2.70182 21.6378 2.54344 21.5013 2.41065C21.3648 2.27786 21.2034 2.17326 21.0265 2.10282C20.8496 2.03239 20.6605 1.9975 20.4701 2.00014ZM8.09006 18.7401H5.09006V9.74014H8.09006V18.7401ZM6.59006 8.48014C6.17632 8.48014 5.77953 8.31578 5.48697 8.02323C5.19442 7.73067 5.03006 7.33388 5.03006 6.92014C5.03006 6.5064 5.19442 6.10961 5.48697 5.81705C5.77953 5.5245 6.17632 5.36014 6.59006 5.36014C6.80975 5.33522 7.03224 5.35699 7.24293 5.42402C7.45363 5.49105 7.6478 5.60183 7.81272 5.7491C7.97763 5.89637 8.10958 6.07682 8.19993 6.27862C8.29028 6.48043 8.33698 6.69904 8.33698 6.92014C8.33698 7.14124 8.29028 7.35985 8.19993 7.56166C8.10958 7.76346 7.97763 7.94391 7.81272 8.09118C7.6478 8.23845 7.45363 8.34923 7.24293 8.41626C7.03224 8.48329 6.80975 8.50505 6.59006 8.48014ZM18.9101 18.7401H15.9101V13.9101C15.9101 12.7001 15.4801 11.9101 14.3901 11.9101C14.0527 11.9126 13.7242 12.0184 13.4489 12.2133C13.1735 12.4082 12.9645 12.6828 12.8501 13.0001C12.7718 13.2352 12.7379 13.4827 12.7501 13.7301V18.7301H9.75006C9.75006 18.7301 9.75006 10.5501 9.75006 9.73014H12.7501V11.0001C13.0226 10.5272 13.419 10.1377 13.8965 9.87334C14.374 9.60902 14.9146 9.47999 15.4601 9.50014C17.4601 9.50014 18.9101 10.7901 18.9101 13.5601V18.7401Z" fill="black"/>
</svg>
